layout/main/dist/assets/main/img/head/wordpress.svg

<svg width="80" height="80" viewBox="0 0 80 80" fill="none" xmlns="http://www.w3.org/2000/svg">
<g clip-path="url(#clip0)">
<path d="M5.66374 39.608C5.66374 53.0576 13.5265 64.6808 24.9281 70.1888L8.62309 25.7795C6.7265 30.0054 5.66374 34.6819 5.66374 39.608ZM62.9203 37.8933C62.9203 33.694 61.4029 30.7857 60.1015 28.5222C58.3688 25.7232 56.7447 23.3529 56.7447 20.554C56.7447 17.4305 59.1278 14.5229 62.4846 14.5229C62.6361 14.5229 62.7798 14.5417 62.9275 14.5501C56.8462 9.01169 48.7441 5.63021 39.8452 5.63021C27.9037 5.63021 17.3977 11.7208 11.2859 20.9458C12.0878 20.9697 12.8436 20.9866 13.4855 20.9866C17.0608 20.9866 22.5951 20.5553 22.5951 20.5553C24.4377 20.4473 24.655 23.1376 22.8143 23.3542C22.8143 23.3542 20.9626 23.5708 18.9021 23.6782L31.3496 60.4833L38.8299 38.1817L33.5044 23.6769C31.6637 23.5695 29.92 23.3529 29.92 23.3529C28.0781 23.2456 28.294 20.446 30.1359 20.554C30.1359 20.554 35.7808 20.9853 39.1395 20.9853C42.7141 20.9853 48.2491 20.554 48.2491 20.554C50.093 20.446 50.3096 23.1363 48.4683 23.3529C48.4683 23.3529 46.6127 23.5695 44.5561 23.6769L56.9086 60.2034L60.3181 48.8777C61.7958 44.1779 62.9203 40.8022 62.9203 37.8933ZM40.4449 42.5802L30.1893 72.2048C33.2514 73.0996 36.4898 73.589 39.8452 73.589C43.8257 73.589 47.6429 72.905 51.1961 71.6629C51.1044 71.5175 51.0211 71.3629 50.9528 71.1948L40.4449 42.5802ZM69.838 23.3057C69.985 24.3881 70.0683 25.5499 70.0683 26.7997C70.0683 30.2478 69.4205 34.1239 67.4693 38.9705L57.0283 68.9791C67.1902 63.0883 74.0254 52.1441 74.0254 39.6086C74.026 33.7011 72.508 28.1459 69.838 23.3057ZM39.8452 0C17.8751 0 0 17.768 0 39.608C0 61.4506 17.8751 79.2179 39.8452 79.2179C61.8146 79.2179 79.6924 61.4506 79.6924 39.608C79.6917 17.768 61.8146 0 39.8452 0ZM39.8452 77.4024C18.8826 77.4024 1.82699 60.4478 1.82699 39.608C1.82699 18.7695 18.882 1.81617 39.8452 1.81617C60.8072 1.81617 77.8615 18.7695 77.8615 39.608C77.8615 60.4478 60.8072 77.4024 39.8452 77.4024Z" fill="#464342"/>
</g>
<defs>
<clipPath id="clip0">
<rect width="80" height="79.2157" fill="white"/>
</clipPath>
</defs>
</svg>

<svg width="80" height="80" viewBox="0 0 80 80" fill="none" xmlns="http://www.w3.org/2000/svg"><g clip-path="url(#clip0)"><path d="M5.664 39.608c0 13.45 7.863 25.073 19.264 30.58L8.623 25.78a33.68 33.68 0 00-2.96 13.829zm57.256-1.715c0-4.199-1.517-7.107-2.819-9.37-1.732-2.8-3.356-5.17-3.356-7.969 0-3.123 2.383-6.031 5.74-6.031.151 0 .295.019.443.027a34.168 34.168 0 00-23.083-8.92c-11.941 0-22.447 6.09-28.56 15.316.803.024 1.559.04 2.2.04 3.576 0 9.11-.43 9.11-.43 1.843-.109 2.06 2.582.22 2.798 0 0-1.852.217-3.913.324L31.35 60.483l7.48-22.301-5.326-14.505a62.29 62.29 0 01-3.584-.324c-1.842-.107-1.626-2.907.216-2.799 0 0 5.645.431 9.003.431 3.575 0 9.11-.431 9.11-.431 1.844-.108 2.06 2.582.22 2.799 0 0-1.856.216-3.913.324L56.91 60.203l3.41-11.325c1.477-4.7 2.601-8.076 2.601-10.985zM40.445 42.58L30.189 72.205a34.37 34.37 0 0021.007-.542 2.976 2.976 0 01-.243-.468L40.445 42.58zm29.393-19.274c.147 1.082.23 2.244.23 3.494 0 3.448-.647 7.324-2.599 12.17L57.03 68.98c10.161-5.892 16.996-16.836 16.996-29.371a33.638 33.638 0 00-4.187-16.303zM39.845 0C17.875 0 0 17.768 0 39.608c0 21.843 17.875 39.61 39.845 39.61s39.847-17.767 39.847-39.61C79.692 17.768 61.815 0 39.845 0zm0 77.402c-20.962 0-38.018-16.954-38.018-37.794 0-20.838 17.055-37.792 38.018-37.792 20.962 0 38.017 16.954 38.017 37.792 0 20.84-17.055 37.794-38.017 37.794z" fill="#464342"/></g><defs><clipPath id="clip0"><path fill="#fff" d="M0 0h80v79.216H0z"/></clipPath></defs></svg>
